X:367
%%etbk:tnset id:285,pos:1,rep:3x,ant:
%%etbk:wsite http://www.trad.katesplacedoolin.com/tunes/sheepintheboat.html
%%etbk:pldat 2016-07-26T17:15,2016-05-26T18:29,2016-04-11T18:00,2016-03-14T19:21,2016-01-03T15:03,2015-12-31T14:00,2015-12-24T15:24,2015-12-22T16:19,2015-03-23T18:54,2014-12-30T18:18,2014-09-16T18:58,2014-09-11T18:52,2014-07-05T14:10,2014-06-15T14:10,2014-05-21T19:20,2014-05-19T19:19,2014-05-14T16:24,2014-05-12T18:55,2013-11-26T16:08,2013-10-05T15:28,2013-10-04T15:17,2013-10-03T18:59,2013-10-02T15:19,2013-09-29T15:57,2013-05-14T17:56,2013-05-07T18:46,2013-04-30T16:37
T:Sheep in the Boat, The
Z: Piano Box Version by Martin Fleischmann
H: Created 2013-02-19 /  Last Modified 2013-02-19
R:Jig
C:Junior Crehan
M:6/8
L:1/8
K:Edor
|: "em"!1!B,!2!E!3!F !4!GFG | "bm"!3!FE!1!D !3!def | "em"!4!e!3!d!2!B !2!B!1!A!3!F | "bm"!5!A!3!F!2!E !3!FE!1!D |
"em"!1!B,EF !4!G2G | "bm"!3!FED !3!def | "em"!4!e!3!d!2!B !2!B!1!A!3!F |1 "bm"!5!AF!2!E "em"E2!1!D:|2 "bm"!5!AF!2!E "em"!1!E3||
"em"!2!B2!4!e ede | "bm"!5!fef !3!def | "em"!4!e!3!d!2!B !2!B!1!A!3!F | "bm"!5!A!3!F!2!E !3!FE!1!D  |
"em"!2!B!4!ee ede | "bm"!5!f2f !3!def | "em"!4!e!3!d!2!B !2!B!1!A!3!F | "bm"!5!A!3!F!2!E "em"!1!E2E |
"em"!2!B2!4!e ed!4!e | "bm"!3!faf !1!def | "em"!2!e!1!d!2!B !2!B!1!A!3!F | "bm"!5!A!3!F!2!E !3!FE!1!D  |
"em"!1!B,!2!E!3!F !4!GFG | "bm"!3!FE!1!D !3!def | "em"!4!e!3!d!2!B !2!B!1!A!3!F | "bm"!5!A!3!F!2!E "em"E2E||


